X: 24637
T: MacArthur Road
R: reel
M: 4/4
K: Emajor
B4 Bcef|g2 ge fece|f2 fg fece|afge fece|
B4 Bcef|g2 ge fece|f2 fg fecA|1 Bcef e2 ec:|2 Bcef e2 ga||
be (3eee geae|ge (3eee fece|f2 fg fece|afge fece|
ge (3eee geae|ge (3eee fece|f2 fg fecA|1 Bcef e2 ga:|2 Bcef e2 z2||

